images/ico_help_step1.svg

<svg width="113" height="113" viewBox="0 0 113 113" fill="none" xmlns="http://www.w3.org/2000/svg">
<path fill-rule="evenodd" clip-rule="evenodd" d="M56.5 113C87.7041 113 113 87.7041 113 56.5C113 25.2959 87.7041 0 56.5 0C25.2959 0 0 25.2959 0 56.5C0 87.7041 25.2959 113 56.5 113ZM56.5 109C85.7711 109 109.5 85.4949 109.5 56.5C109.5 27.5051 85.7711 4 56.5 4C27.2289 4 3.5 27.5051 3.5 56.5C3.5 85.4949 27.2289 109 56.5 109Z" fill="url(#paint0_linear)"/>
<path d="M40.4091 35.0079C40.0715 35.0127 39.7494 35.1508 39.5131 35.3919L28.5051 46.4639C28.2639 46.7003 28.1259 47.0223 28.1211 47.3599L28.1211 71.2319C28.1211 72.7596 28.7279 74.2247 29.8082 75.3049C30.8884 76.3851 32.3534 76.9919 33.8811 76.9919L76.1211 76.9919C77.6487 76.9919 79.1138 76.3851 80.194 75.3049C81.2742 74.2247 81.8811 72.7596 81.8811 71.2319L81.8811 40.7679C81.8811 39.2403 81.2742 37.7752 80.194 36.695C79.1138 35.6148 77.6487 35.0079 76.1211 35.0079L40.4091 35.0079ZM76.1211 37.5679C76.9698 37.5679 77.7837 37.9051 78.3838 38.5052C78.9839 39.1053 79.3211 39.9192 79.3211 40.7679L79.3211 71.2319C79.3211 72.0806 78.984 72.8946 78.3838 73.4947C77.7837 74.0948 76.9698 74.4319 76.1211 74.4319L33.8811 74.4319C33.0324 74.4319 32.2185 74.0948 31.6184 73.4947C31.0182 72.8946 30.6811 72.0806 30.6811 71.2319L30.6811 47.8719L40.9851 37.5679L76.1211 37.5679Z" fill="url(#paint1_linear)" stroke="url(#paint2_linear)" stroke-width="1.4"/>
<path d="M56.8562 70.3999L72.7282 70.3999C73.0676 70.3999 73.3932 70.265 73.6333 70.025C73.8733 69.785 74.0082 69.4594 74.0082 69.1199L74.0082 43.5199C74.0082 43.1804 73.8733 42.8549 73.6333 42.6148C73.3932 42.3748 73.0676 42.2399 72.7282 42.2399L56.8562 42.2399C56.5167 42.2399 56.1911 42.3748 55.9511 42.6148C55.711 42.8549 55.5762 43.1804 55.5762 43.5199L55.5762 69.1199C55.5762 69.4594 55.711 69.785 55.9511 70.025C56.1911 70.265 56.5167 70.3999 56.8562 70.3999ZM58.1362 67.8399L58.1362 44.7999L71.4482 44.7999L71.4482 67.8399L58.1362 67.8399Z" fill="url(#paint3_linear)" stroke="url(#paint4_linear)" stroke-width="1.4"/>
<path d="M41.5624 59.2801C41.5624 58.9406 41.4276 58.615 41.1875 58.375C40.9475 58.1349 40.6219 58.0001 40.2824 58.0001L36.7624 58.0001C36.4229 58.0001 36.0974 58.1349 35.8573 58.375C35.6173 58.615 35.4824 58.9406 35.4824 59.2801C35.4824 59.6195 35.6173 59.9451 35.8573 60.1852C36.0974 60.4252 36.4229 60.5601 36.7624 60.5601L40.2824 60.5601C40.6219 60.5601 40.9475 60.4252 41.1875 60.1852C41.4276 59.9451 41.5624 59.6195 41.5624 59.2801Z" fill="url(#paint5_linear)" stroke="url(#paint6_linear)" stroke-width="1.4"/>
<path d="M41.5605 50.2801C41.5605 49.9406 41.4256 49.615 41.1856 49.375C40.9455 49.1349 40.6199 49.0001 40.2805 49.0001L36.7605 49.0001C36.421 49.0001 36.0954 49.1349 35.8554 49.375C35.6153 49.615 35.4805 49.9406 35.4805 50.2801C35.4805 50.6195 35.6153 50.9451 35.8554 51.1852C36.0954 51.4252 36.421 51.5601 36.7605 51.5601L40.2805 51.5601C40.6199 51.5601 40.9455 51.4252 41.1856 51.1852C41.4256 50.9451 41.5605 50.6195 41.5605 50.2801Z" fill="url(#paint7_linear)" stroke="url(#paint8_linear)" stroke-width="1.4"/>
<path d="M41.5624 68.2801C41.5624 67.9406 41.4276 67.615 41.1875 67.375C40.9475 67.1349 40.6219 67.0001 40.2824 67.0001L36.7624 67.0001C36.4229 67.0001 36.0974 67.1349 35.8573 67.375C35.6173 67.615 35.4824 67.9406 35.4824 68.2801C35.4824 68.6195 35.6173 68.9451 35.8573 69.1852C36.0974 69.4252 36.4229 69.5601 36.7624 69.5601L40.2824 69.5601C40.6219 69.5601 40.9475 69.4252 41.1875 69.1852C41.4276 68.9451 41.5624 68.6195 41.5624 68.2801Z" fill="url(#paint9_linear)" stroke="url(#paint10_linear)" stroke-width="1.4"/>
<defs>
<linearGradient id="paint0_linear" x1="56.5" y1="0" x2="35.64" y2="118.375" gradientUnits="userSpaceOnUse">
<stop stop-color="#50CFFA"/>
<stop offset="0.999201" stop-color="#52A2ED"/>
</linearGradient>
<linearGradient id="paint1_linear" x1="61.001" y1="35" x2="63.8692" y2="75.6566" gradientUnits="userSpaceOnUse">
<stop stop-color="#50CFFA"/>
<stop offset="0.999201" stop-color="#52A2ED"/>
</linearGradient>
<linearGradient id="paint2_linear" x1="53.501" y1="35.5" x2="53.501" y2="76" gradientUnits="userSpaceOnUse">
<stop stop-color="#50CFFA"/>
<stop offset="1" stop-color="#51A5EE"/>
</linearGradient>
<linearGradient id="paint3_linear" x1="62" y1="42.5" x2="73.0638" y2="64.0681" gradientUnits="userSpaceOnUse">
<stop stop-color="#50CFFA"/>
<stop offset="0.999201" stop-color="#52A2ED"/>
</linearGradient>
<linearGradient id="paint4_linear" x1="65" y1="43.5" x2="65" y2="70" gradientUnits="userSpaceOnUse">
<stop stop-color="#50CFFA"/>
<stop offset="1" stop-color="#51A5EE"/>
</linearGradient>
<linearGradient id="paint5_linear" x1="35.4824" y1="59.2801" x2="41.0706" y2="61.6188" gradientUnits="userSpaceOnUse">
<stop stop-color="#50CFFA"/>
<stop offset="0.999201" stop-color="#52A2ED"/>
</linearGradient>
<linearGradient id="paint6_linear" x1="35.4824" y1="59.2801" x2="41.5624" y2="59.2801" gradientUnits="userSpaceOnUse">
<stop stop-color="#50CFFA"/>
<stop offset="1" stop-color="#51A5EE"/>
</linearGradient>
<linearGradient id="paint7_linear" x1="38" y1="48" x2="37.1945" y2="51.8306" gradientUnits="userSpaceOnUse">
<stop stop-color="#50CFFA"/>
<stop offset="0.999201" stop-color="#52A2ED"/>
</linearGradient>
<linearGradient id="paint8_linear" x1="38.5" y1="48" x2="38.5" y2="55" gradientUnits="userSpaceOnUse">
<stop stop-color="#50CFFA"/>
<stop offset="1" stop-color="#51A5EE"/>
</linearGradient>
<linearGradient id="paint9_linear" x1="35.4824" y1="68.2801" x2="41.0706" y2="70.6188" gradientUnits="userSpaceOnUse">
<stop stop-color="#50CFFA"/>
<stop offset="0.999201" stop-color="#52A2ED"/>
</linearGradient>
<linearGradient id="paint10_linear" x1="35.4824" y1="68.2801" x2="41.5624" y2="68.2801" gradientUnits="userSpaceOnUse">
<stop stop-color="#50CFFA"/>
<stop offset="1" stop-color="#51A5EE"/>
</linearGradient>
</defs>
</svg>

<svg width="113" height="113" fill="none" xmlns="http://www.w3.org/2000/svg"><path fill-rule="evenodd" clip-rule="evenodd" d="M56.5 113c31.204 0 56.5-25.296 56.5-56.5S87.704 0 56.5 0 0 25.296 0 56.5 25.296 113 56.5 113zm0-4c29.271 0 53-23.505 53-52.5S85.771 4 56.5 4s-53 23.505-53 52.5 23.729 52.5 53 52.5z" fill="url(#paint0_linear)"/><path d="M40.41 35.008a1.28 1.28 0 00-.897.384L28.505 46.464a1.28 1.28 0 00-.384.896v23.872a5.76 5.76 0 005.76 5.76h42.24a5.76 5.76 0 005.76-5.76V40.768a5.76 5.76 0 00-5.76-5.76H40.41zm35.711 2.56a3.2 3.2 0 013.2 3.2v30.464a3.2 3.2 0 01-3.2 3.2h-42.24a3.2 3.2 0 01-3.2-3.2v-23.36l10.304-10.304h35.136z" fill="url(#paint1_linear)" stroke="url(#paint2_linear)" stroke-width="1.4"/><path d="M56.856 70.4h15.872a1.28 1.28 0 001.28-1.28v-25.6a1.28 1.28 0 00-1.28-1.28H56.856a1.28 1.28 0 00-1.28 1.28v25.6a1.28 1.28 0 001.28 1.28zm1.28-2.56V44.8h13.312v23.04H58.136z" fill="url(#paint3_linear)" stroke="url(#paint4_linear)" stroke-width="1.4"/><path d="M41.562 59.28a1.28 1.28 0 00-1.28-1.28h-3.52a1.28 1.28 0 100 2.56h3.52a1.28 1.28 0 001.28-1.28z" fill="url(#paint5_linear)" stroke="url(#paint6_linear)" stroke-width="1.4"/><path d="M41.56 50.28A1.28 1.28 0 0040.28 49h-3.52a1.28 1.28 0 100 2.56h3.52a1.28 1.28 0 001.28-1.28z" fill="url(#paint7_linear)" stroke="url(#paint8_linear)" stroke-width="1.4"/><path d="M41.562 68.28a1.28 1.28 0 00-1.28-1.28h-3.52a1.28 1.28 0 100 2.56h3.52a1.28 1.28 0 001.28-1.28z" fill="url(#paint9_linear)" stroke="url(#paint10_linear)" stroke-width="1.4"/><defs><linearGradient id="paint0_linear" x1="56.5" y1="0" x2="35.64" y2="118.375" gradientUnits="userSpaceOnUse"><stop stop-color="#50CFFA"/><stop offset=".999" stop-color="#52A2ED"/></linearGradient><linearGradient id="paint1_linear" x1="61.001" y1="35" x2="63.869" y2="75.657" gradientUnits="userSpaceOnUse"><stop stop-color="#50CFFA"/><stop offset=".999" stop-color="#52A2ED"/></linearGradient><linearGradient id="paint2_linear" x1="53.501" y1="35.5" x2="53.501" y2="76" gradientUnits="userSpaceOnUse"><stop stop-color="#50CFFA"/><stop offset="1" stop-color="#51A5EE"/></linearGradient><linearGradient id="paint3_linear" x1="62" y1="42.5" x2="73.064" y2="64.068" gradientUnits="userSpaceOnUse"><stop stop-color="#50CFFA"/><stop offset=".999" stop-color="#52A2ED"/></linearGradient><linearGradient id="paint4_linear" x1="65" y1="43.5" x2="65" y2="70" gradientUnits="userSpaceOnUse"><stop stop-color="#50CFFA"/><stop offset="1" stop-color="#51A5EE"/></linearGradient><linearGradient id="paint5_linear" x1="35.482" y1="59.28" x2="41.071" y2="61.619" gradientUnits="userSpaceOnUse"><stop stop-color="#50CFFA"/><stop offset=".999" stop-color="#52A2ED"/></linearGradient><linearGradient id="paint6_linear" x1="35.482" y1="59.28" x2="41.562" y2="59.28" gradientUnits="userSpaceOnUse"><stop stop-color="#50CFFA"/><stop offset="1" stop-color="#51A5EE"/></linearGradient><linearGradient id="paint7_linear" x1="38" y1="48" x2="37.194" y2="51.831" gradientUnits="userSpaceOnUse"><stop stop-color="#50CFFA"/><stop offset=".999" stop-color="#52A2ED"/></linearGradient><linearGradient id="paint8_linear" x1="38.5" y1="48" x2="38.5" y2="55" gradientUnits="userSpaceOnUse"><stop stop-color="#50CFFA"/><stop offset="1" stop-color="#51A5EE"/></linearGradient><linearGradient id="paint9_linear" x1="35.482" y1="68.28" x2="41.071" y2="70.619" gradientUnits="userSpaceOnUse"><stop stop-color="#50CFFA"/><stop offset=".999" stop-color="#52A2ED"/></linearGradient><linearGradient id="paint10_linear" x1="35.482" y1="68.28" x2="41.562" y2="68.28" gradientUnits="userSpaceOnUse"><stop stop-color="#50CFFA"/><stop offset="1" stop-color="#51A5EE"/></linearGradient></defs></svg>
